svgs/f_droid_basic.svg

<svg width="192" height="192" viewBox="0 0 192 192" fill="none" xmlns="http://www.w3.org/2000/svg"><path d="M50 86c-8.837 0-16 7.163-16 16v52c0 8.837 7.163 16 16 16h92c8.837 0 16-7.163 16-16v-52c0-8.837-7.163-16-16-16m-92 0h92m-92 0c-8.837 0-16-7.163-16-16V54c0-8.837 7.163-16 16-16h92c8.837 0 16 7.163 16 16v16c0 8.837-7.163 16-16 16" stroke="#000" stroke-width="12"/><path d="M36 40 22 22m134 18 14-18" stroke="#000" stroke-width="12" stroke-linecap="round"/></svg>

<svg width="192" height="192" viewBox="0 0 192 192" fill="none" xmlns="http://www.w3.org/2000/svg">
<path d="M50 86C41.163 86 34 93.163 34 102V154C34 162.837 41.163 170 50 170H142C150.837 170 158 162.837 158 154V102C158 93.163 150.837 86 142 86M50 86H142M50 86C41.163 86 34 78.837 34 70V54C34 45.163 41.163 38 50 38H142C150.837 38 158 45.163 158 54V70C158 78.837 150.837 86 142 86" stroke="black" stroke-width="12"/>
<path d="M36 40L22 22M156 40L170 22" stroke="black" stroke-width="12" stroke-linecap="round"/>
</svg>
